X: 13822
T: Four Posts Of The Bed, The
R: jig
M: 6/8
K: Amixolydian
cAA A<cA|EAA A2 B|c2 c AcA|e3 e2 d|
cAA A<cA|EAA ABc|d/c/dd G2 B|d/c/dd e2 d|
cAA A2 A|E2 A A3|c2 c AcA|e3 e2 d|
cAA AcA|EAA A3|G/A/GG G2 B|d/c/dd||
=c2 d ede|gag e/f/ed|=c2 d ede|g3 g3|
=c2 d ede|gag gfe|d/c/dd d2 e|=f2 f e2 d|
=c2 d ede|gag e/f/ed|=c2 d ede|g3 g2 a|
bgg a3|gag gfe|d/c/dd d2 e|=f2 f||

